X:93
T:Dever the Dancer
T:The Humours of Whiskey
M:9/8
L:1/8
R:slipjig
N:Learned from Howard Chu
Z:Michael Abraham Shulman
N:This is not really `The Humours of Whiskey'.
N:The `real' Humours of Whiskey is #109.
K:D
|:BEE BEF G2A|BEE BAG FGA|BEE BEF G2A|Bcd ABG FED:|
ded =cAF G2A|Add def gfe|ded =cAF G2A|Bcd ABG FED|
ded =cAF G2A|Add def gfg|afd gec d2e|fed ABG FED||
